X:144
T:My Love is But A Lassie Yet,aka. RHu.144a
T:Scotch Set Of Quadrilles.#1. RHu.144a
S:R.Hughes MS,1823,Whitchurch,Shrops.
A:Whitchurch, Shropshire
Z:Tony Weatherall 2006
N:There was an extra ‘d’ lead-in note to the third part,
N:also an extra ‘c’ at the end, both I have removed.
N:Repeats were uncertain, I have regularised them.
M:2/4
L:1/8
Q:1/4=100
K:D
c|dDFA|dDDc|dDFA|eEEc|!
dDFA|dgfe|d/c/B/A/ B/d/c/e/|dDD:|!
|:(f/g/)|afge|fd df/g/|a>fg>e|eE E(f/g/)|!
a>fg>e|f>de>c|d/c/B/A/ B/d/c/e/|dDD :|!
|:c|f2b2|d’d’ d’/c’/b/a/|g/f/e/d/ cf|e/d/c/d/ Bd|!
f2b2|e2g2|g/f/e/d/ c/B/c/d/|BdB 😐

